X:1
T:Gorton (Brunk), 87.87 D
T:Gorton (Brunk), 87.87 D
T:Christian H. Brunk, 1883
T:Public Domain Courtesy of the Cyber Hymnal™
C:Christian H. Brunk, 1883
Z:Public Domain
Z:Courtesy of the Cyber Hymnal™
%%score ( 1 2 ) ( 3 4 )
L:1/8
Q:1/4=109
M:4/4
K:G
V:1 treble 
V:2 treble 
V:3 bass 
V:4 bass 
V:1
 [GB]2 [Gd]2 [DA]2 [DB]2 | [EG]2 [CE]2 D G3 | [DG]2 (GA) [GB]2 (Bc) | [Dd]2 [Gd]2 [FA]4 | %4
 [GB]2 [Gd]2 [DA]2 [DB]2 | [EG]2 [CE]2 D G3 | [DG]2 (GA) [GB]2 [GB]2 | [FA]2 [FA]2 G4 | %8
 [Ec]2 [Ec]2 [Ee]2 [Ec]2 | [DB]2 [DA]2 [DB] [Dd]3 | [Gd]2 [GB]2 [DG]2 [DG]2 | [FA]2 [GB]2 [FA]4 | %12
 [GB]2 [Gd]2 [DA]2 [DB]2 | [EG]2 [CE]2 D [B,G]3 | [DG]2 (GA) [GB]2 [GB]2 | %15
 [FA]2 [FA]2 !fermata!G4 |] %16
V:2
 x8 | x4 D G3 | x2 D2 x G2 x | x8 | x8 | x4 D G3 | x2 D2 x4 | x4 G4 | x8 | x8 | x8 | x8 | x8 | %13
 x4 D x3 | x2 D2 x4 | x4 G4 |] %16
V:3
 [G,B,]2 [G,B,]2 [F,D]2 [F,D]2 | [E,B,]2 [C,G,]2 [D,A,] [G,,B,]3 | [G,B,]2 [G,B,]2 [G,D]2 [G,D]2 | %3
 [F,C]2 [G,B,]2 [D,A,]4 | [G,B,]2 [G,B,]2 [F,D]2 [F,D]2 | [E,B,]2 [C,G,]2 [D,A,] [G,,B,]3 | %6
 [G,B,]2 [G,B,]2 [G,D]2 [G,D]2 | [D,C]2 [D,C]2 [G,,B,]4 | [C,G,]2 [C,G,]2 [C,G,]2 [C,G,]2 | %9
 [B,,G,]2 [D,F,]2 G, G,3 | [G,B,]2 [G,D]2 [G,,B,]2 [G,,B,]2 | [D,D]2 [E,G,]2 [D,A,]4 | %12
 [G,B,]2 [G,B,]2 [F,D]2 [F,D]2 | [E,B,]2 [C,G,]2 [D,A,] [G,,B,]3 | [G,B,]2 [G,B,]2 [G,D]2 [G,D]2 | %15
 [D,A,]2 [D,A,]2 !fermata![G,,B,]4 |] %16
V:4
 x8 | x8 | x8 | x8 | x8 | x8 | x8 | x8 | x8 | x4 G, G,3 | x8 | x8 | x8 | x8 | x8 | x8 |] %16

